html/dist/img/svg/fieldwire.svg

<svg width="326" height="427" viewBox="0 0 326 427" fill="none" xmlns="http://www.w3.org/2000/svg">
<path d="M325.217 359.136C281.019 401.924 195.813 428.114 157.075 425.879C157.075 425.879 159.641 420.728 160.055 417.684C160.468 414.64 160.41 414.879 160.468 414.582C160.468 414.582 160.473 414.578 160.481 414.574C161.289 414.225 198.945 404.097 229.867 392.488C238.173 389.37 245.992 386.145 252.482 382.974C269.611 374.603 281.712 367.191 292.162 359.144C298.418 354.327 304.082 349.284 309.88 343.671L309.889 343.68L325.217 359.136Z" fill="white"/>
<path d="M149.781 0.25404C152.795 0.746542 153.888 0.959948 155.551 1.38042C156.609 1.64828 157.874 2.00526 158.362 2.17375C158.85 2.34247 159.916 2.68261 160.729 2.92947C161.543 3.17609 162.542 3.51915 162.949 3.69129C163.356 3.86368 163.895 4.00506 164.147 4.00603C164.4 4.00677 164.732 4.10004 164.887 4.21285C165.144 4.40087 167.18 4.96735 170.198 5.69109C172.007 6.12499 174.089 6.44144 176.856 6.70319C178.24 6.83431 180.437 7.04675 181.739 7.17567C183.041 7.3046 185.97 7.52362 188.249 7.66207C193.66 7.99122 196.624 8.29375 199.345 8.79504C208.991 10.5717 217.301 13.1826 224.35 16.6514C229.589 19.2299 239.64 25.5191 243.151 28.416C246.443 31.1322 246.795 31.4794 248.221 33.4306C249.747 35.5183 250.242 36.924 250.242 39.1773C250.242 40.247 250.296 41.1221 250.364 41.1221C251.278 41.1221 255.396 41.9775 256.95 42.4905C266.432 45.6191 277.908 54.7744 283.547 63.7083C285.144 66.2382 287.123 70.2134 288.105 72.8649C288.479 73.8721 288.894 74.916 289.029 75.1846C289.288 75.7029 291.022 81.5194 291.83 84.5853C292.095 85.5925 292.491 87.0759 292.709 87.8817C292.928 88.6874 293.324 90.1708 293.592 91.178C293.858 92.1852 294.205 93.4489 294.362 93.986C296.212 100.327 296.617 111.571 295.202 117.328C294.413 120.539 293.971 122.157 293.54 123.409C293.268 124.202 292.674 125.743 292.048 127.315C291.212 129.413 290.318 131.567 290.05 132.077C289.839 132.48 288.969 134.183 288.118 135.862C286.603 138.848 286.075 139.836 284.131 143.309C283.605 144.25 282.789 145.733 282.319 146.606L22.8362 110.33L22.2218 110.948C21.7384 111.435 21.2668 111.965 20.8091 112.535C17.673 116.437 15.1911 122.175 14.0501 128.293C13.7157 130.085 13.6091 133.629 13.7312 136.246C13.7875 137.452 13.8925 138.462 14.0462 139.011C14.2492 139.736 14.3557 140.377 14.2832 140.437C14.12 140.572 13.696 140.475 13.0762 140.176C12.5491 139.921 11.8804 139.52 11.1099 138.991C8.2893 137.054 5.91556 134.201 3.73294 130.124C2.11344 127.099 0.71643 121.419 0.190009 115.718C-0.0952464 112.629 -0.0712435 111.387 0.343324 107.79C0.613488 105.445 0.898739 103.441 0.976859 103.336C1.05498 103.232 1.25085 102.459 1.41212 101.618C1.57339 100.778 1.82463 99.7608 1.97081 99.3579C2.11669 98.955 2.51941 97.7463 2.86533 96.672C3.21125 95.5976 3.60893 94.4988 3.74889 94.2302C3.88915 93.9616 4.27003 93.0826 4.59553 92.2768C5.16189 90.8755 5.83831 89.4187 6.41 88.37C6.55648 88.1014 7.17136 86.6181 7.7762 85.0736C8.38104 83.5292 8.98766 82.1611 9.12407 82.0337C9.26049 81.906 9.37323 81.6313 9.37412 81.4232C9.3753 81.2149 9.57503 80.73 9.81797 80.3454C10.0612 79.9606 10.2601 79.5426 10.2601 79.4164C10.2601 79.2059 10.7463 78.2372 11.9411 76.0682C12.1915 75.6141 12.8428 74.6305 13.389 73.8824C13.9352 73.1342 14.3282 72.4779 14.2625 72.4237C14.0631 72.2591 9.27114 75.3689 8.22126 76.3444C7.28648 77.2129 7.00477 76.872 7.01039 74.8793C7.02134 71.1464 8.78911 64.8203 10.917 60.9003C14.0578 55.1143 15.7956 53.4315 23.7239 48.4982C26.6534 46.6754 29.7826 44.6121 30.6777 43.9133C32.2481 42.6873 38.972 37.92 43.397 34.8957C44.5762 34.0899 45.6942 33.3112 45.8815 33.1652C46.4677 32.7086 55.4355 26.8809 56.9263 25.9879C60.6396 23.7637 70.2711 18.658 70.7538 18.658C70.8316 18.658 71.5929 18.3186 72.4458 17.9038C76.4911 15.9355 85.3278 12.5192 90.4512 10.9431C91.5091 10.6176 92.6409 10.2533 92.9664 10.1334C93.2919 10.0135 94.4238 9.67603 95.4816 9.3835C96.5395 9.09098 97.6092 8.76476 97.8587 8.6583C98.1081 8.55184 98.7695 8.3819 99.3284 8.28057C99.8874 8.17923 100.549 8.00636 100.798 7.89599C101.048 7.78587 102.251 7.46209 103.471 7.17641C104.692 6.89072 106.023 6.55791 106.43 6.4368C106.837 6.31593 107.703 6.10912 108.354 5.97775C109.005 5.84614 110.336 5.56094 111.313 5.34362C112.289 5.12655 113.854 4.79203 114.79 4.60011C118.219 3.89762 119.933 3.53575 121.669 3.148C127.151 1.92322 133.683 0.815885 138.24 0.339011C140.276 0.125846 148.621 0.0645604 149.781 0.25404Z" fill="white"/>
<path d="M30.2778 212.722L28.4758 182.088L28 174L68.619 252.884H58.1945H45.0834C28 252.884 32.5237 250.939 30.2778 212.722Z" fill="white"/>
<path d="M118 318.5C116.132 322.236 138.039 360.489 152.983 375.432C164.896 387.345 162.959 406.431 160.481 414.574C161.289 414.225 198.945 404.097 229.867 392.488C238.173 389.37 245.992 386.145 252.482 382.974C269.611 374.603 281.712 367.191 292.162 359.144C298.418 354.327 304.082 349.284 309.88 343.671L309.889 343.68L309.892 343.677L259.457 280.166C259.457 280.166 266.929 184.277 276.269 190.504C285.609 196.73 295.002 171.821 293.081 138.201C292.867 134.459 292.518 130.831 292.048 127.315C291.212 129.413 290.318 131.567 290.05 132.077C289.839 132.48 288.969 134.183 288.118 135.862C286.603 138.848 286.075 139.836 284.131 143.309C283.605 144.25 282.789 145.733 282.319 146.606L22.8362 110.33L22.2218 110.948C21.7384 111.435 21.2668 111.965 20.8091 112.535C17.2985 121.877 14.9344 130.137 13.7312 136.246C13.7875 137.452 13.8925 138.462 14.0462 139.011C14.2492 139.736 14.3557 140.377 14.2832 140.437C14.12 140.572 13.696 140.475 13.0762 140.176C12.9947 140.8 12.9311 141.388 12.8853 141.936C11.6748 156.463 21.4471 172.558 28.4758 182.088L28 174L68.619 252.884H58.1945C62.5135 255.705 62.5711 273.641 66 292.5C69.7359 313.048 70.7359 321.302 80.1322 326C88.2359 330.052 119.868 314.764 118 318.5Z" fill="white"/>
</svg>

<svg width="326" height="427" viewBox="0 0 326 427" fill="none" xmlns="http://www.w3.org/2000/svg"><path d="M325.217 359.136c-44.198 42.788-129.404 68.978-168.142 66.743 0 0 2.566-5.151 2.98-8.195.413-3.044.355-2.805.413-3.102l.013-.008c.808-.349 38.464-10.477 69.386-22.086 8.306-3.118 16.125-6.343 22.615-9.514 17.129-8.371 29.23-15.783 39.68-23.83 6.256-4.817 11.92-9.86 17.718-15.473l.009.009 15.328 15.456zM149.781.254c3.014.493 4.107.706 5.77 1.126 1.058.268 2.323.625 2.811.794.488.168 1.554.509 2.367.755.814.247 1.813.59 2.22.762.407.173.946.314 1.198.315.253 0 .585.094.74.207.257.188 2.293.754 5.311 1.478 1.809.434 3.891.75 6.658 1.012 1.384.131 3.581.344 4.883.473s4.231.348 6.51.486c5.411.33 8.375.632 11.096 1.133 9.646 1.777 17.956 4.388 25.005 7.856 5.239 2.579 15.29 8.868 18.801 11.765 3.292 2.716 3.644 3.063 5.07 5.015 1.526 2.087 2.021 3.493 2.021 5.746 0 1.07.054 1.945.122 1.945.914 0 5.032.855 6.586 1.368 9.482 3.13 20.958 12.284 26.597 21.218 1.597 2.53 3.576 6.505 4.558 9.157.374 1.007.789 2.051.924 2.32.259.518 1.993 6.334 2.801 9.4.265 1.008.661 2.49.879 3.297.219.805.615 2.289.883 3.296.266 1.007.613 2.27.77 2.808 1.85 6.341 2.255 17.585.84 23.342-.789 3.211-1.231 4.829-1.662 6.081-.272.793-.866 2.334-1.492 3.906-.836 2.098-1.73 4.252-1.998 4.762-.211.403-1.081 2.106-1.932 3.785-1.515 2.986-2.043 3.974-3.987 7.447-.526.941-1.342 2.424-1.812 3.297L22.836 110.33l-.614.618a20.239 20.239 0 00-1.413 1.587c-3.136 3.902-5.618 9.64-6.759 15.758-.334 1.792-.44 5.336-.319 7.953.056 1.206.162 2.216.315 2.765.203.725.31 1.366.237 1.426-.163.135-.587.038-1.207-.261-.527-.255-1.196-.656-1.966-1.185-2.82-1.937-5.194-4.79-7.377-8.867-1.62-3.025-3.017-8.705-3.543-14.406-.285-3.089-.261-4.331.153-7.928.27-2.345.556-4.349.634-4.454.078-.104.274-.877.435-1.718.161-.84.413-1.857.559-2.26.146-.403.548-1.612.894-2.686.346-1.074.744-2.173.884-2.442.14-.268.521-1.147.847-1.953.566-1.401 1.242-2.858 1.814-3.907.146-.269.761-1.752 1.366-3.296.605-1.545 1.212-2.913 1.348-3.04.136-.128.25-.403.25-.61.001-.21.201-.694.444-1.079.243-.384.442-.802.442-.929 0-.21.486-1.179 1.681-3.348.25-.454.902-1.438 1.448-2.186.546-.748.94-1.404.873-1.458-.199-.165-4.99 2.945-6.04 3.92-.936.869-1.217.528-1.212-1.465.011-3.733 1.78-10.059 3.907-13.979 3.14-5.786 4.879-7.468 12.807-12.402 2.93-1.823 6.059-3.886 6.954-4.585 1.57-1.226 8.294-5.993 12.719-9.017 1.18-.806 2.297-1.585 2.485-1.73.586-.457 9.553-6.285 11.044-7.178 3.714-2.224 13.345-7.33 13.828-7.33.078 0 .839-.34 1.692-.754 4.045-1.969 12.882-5.385 18.005-6.96 1.058-.326 2.19-.69 2.515-.81.326-.12 1.458-.458 2.516-.75 1.058-.293 2.127-.62 2.377-.726.25-.106.91-.276 1.47-.377.558-.102 1.22-.275 1.469-.385.25-.11 1.453-.434 2.673-.72 1.221-.285 2.552-.618 2.959-.74a28.24 28.24 0 011.924-.458 204.62 204.62 0 002.959-.634c.976-.217 2.541-.552 3.477-.744 3.429-.702 5.143-1.064 6.879-1.452C127.151 1.923 133.683.816 138.24.339c2.036-.213 10.381-.274 11.541-.085zM30.278 212.722l-1.802-30.634L28 174l40.619 78.884H45.084c-17.084 0-12.56-1.945-14.806-40.162z" fill="#fff"/><path d="M118 318.5c-1.868 3.736 20.039 41.989 34.983 56.932 11.913 11.913 9.976 30.999 7.498 39.142.808-.349 38.464-10.477 69.386-22.086 8.306-3.118 16.125-6.343 22.615-9.514 17.129-8.371 29.23-15.783 39.68-23.83 6.256-4.817 11.92-9.86 17.718-15.473l.009.009.003-.003-50.435-63.511s7.472-95.889 16.812-89.662c9.34 6.226 18.733-18.683 16.812-52.303-.214-3.742-.563-7.37-1.033-10.886-.836 2.098-1.73 4.252-1.998 4.762-.211.403-1.081 2.106-1.932 3.785-1.515 2.986-2.043 3.974-3.987 7.447-.526.941-1.342 2.424-1.812 3.297L22.836 110.33l-.614.618a20.239 20.239 0 00-1.413 1.587c-3.51 9.342-5.875 17.602-7.078 23.711.056 1.206.162 2.216.315 2.765.203.725.31 1.366.237 1.426-.163.135-.587.038-1.207-.261a38.233 38.233 0 00-.19 1.76c-1.211 14.527 8.561 30.622 15.59 40.152L28 174l40.619 78.884H58.194c4.32 2.821 4.377 20.757 7.806 39.616 3.736 20.548 4.736 28.802 14.132 33.5 8.104 4.052 39.736-11.236 37.868-7.5z" fill="#fff"/></svg>
